public/assets/images/pill-bottle2.svg

<svg enable-background="new 0 0 136 265" viewBox="0 0 136 265" xmlns="http://www.w3.org/2000/svg"><path d="m104.6 252.9h-65.3c-6.2 0-11.3-5.1-11.3-11.3v-194.1c0-3.5 2.8-6.3 6.3-6.3h75.3c3.5 0 6.3 2.8 6.3 6.3v194.1c0 6.2-5 11.3-11.3 11.3z" fill="#f3c74a"/><path d="m112.5 202h-51c-9.1 0-16.6-6.9-16.6-15.4v-84.3c0-8.5 7.4-15.4 16.6-15.4h51c2.2 0 4 1.9 4 4.2v106.8c0 2.2-1.8 4.1-4 4.1z" fill="#f8eec8"/><path d="m27.8 77.9v-32.2c0-3.5 2.1-6.3 4.7-6.3h78.5c2.6 0 4.7 2.8 4.7 6.3v11.4z" fill="#f3c74a" opacity=".67"/><path d="m121.3 50.9h-98.8c-2.4 0-4.4-2-4.4-4.4v-26c0-2.4 2-4.4 4.4-4.4h98.8c2.4 0 4.4 2 4.4 4.4v26c0 2.5-1.9 4.4-4.4 4.4z" fill="#f8f6e8"/><g fill="#c0d5d0"><path d="m29.2 52.1v-22.8c0-.6-.5-1.2-1.2-1.2-.6 0-1.2.5-1.2 1.2v22.8z"/><path d="m50.4 52.1v-22.8c0-.6-.5-1.2-1.2-1.2-.6 0-1.2.5-1.2 1.2v22.8z"/><path d="m71.7 52.1v-22.8c0-.6-.5-1.2-1.2-1.2-.6 0-1.2.5-1.2 1.2v22.8z"/><path d="m114.2 52.1v-22.8c0-.6-.5-1.2-1.2-1.2-.6 0-1.2.5-1.2 1.2v22.8z"/><path d="m92.9 52.1v-22.8c0-.6-.5-1.2-1.2-1.2-.6 0-1.2.5-1.2 1.2v22.8z"/></g><path d="m121.3 52.6h-98.8c-2.4 0-4.4-2-4.4-4.4v-8.2c0-.4.3-.7.7-.7h106.2c.4 0 .7.3.7.7v8.2c0 2.4-1.9 4.4-4.4 4.4z" fill="#f8f6e8"/></svg>

<?xml version="1.0" encoding="utf-8"?>
<!-- Generator: Adobe Illustrator 21.1.0, SVG Export Plug-In . SVG Version: 6.00 Build 0)  -->
<svg version="1.1" id="Layer_1" xmlns="http://www.w3.org/2000/svg" xmlns:xlink="http://www.w3.org/1999/xlink" x="0px" y="0px"
	 viewBox="0 0 136 265" style="enable-background:new 0 0 136 265;" xml:space="preserve">
<style type="text/css">
	.st0{fill:#F3C74A;}
	.st1{fill:#F8EEC8;}
	.st2{opacity:0.67;fill:#F3C74A;}
	.st3{fill:#F8F6E8;}
	.st4{fill:#C0D5D0;}
</style>
<g>
	<g>
		<path class="st0" d="M104.6,252.9H39.3c-6.2,0-11.3-5.1-11.3-11.3V47.5c0-3.5,2.8-6.3,6.3-6.3h75.3c3.5,0,6.3,2.8,6.3,6.3v194.1
			C115.9,247.8,110.9,252.9,104.6,252.9z"/>
		<path class="st1" d="M112.5,202h-51c-9.1,0-16.6-6.9-16.6-15.4v-84.3c0-8.5,7.4-15.4,16.6-15.4h51c2.2,0,4,1.9,4,4.2v106.8
			C116.5,200.1,114.7,202,112.5,202z"/>
		<path class="st2" d="M27.8,77.9V45.7c0-3.5,2.1-6.3,4.7-6.3H111c2.6,0,4.7,2.8,4.7,6.3v11.4L27.8,77.9z"/>
		<path class="st3" d="M121.3,50.9H22.5c-2.4,0-4.4-2-4.4-4.4v-26c0-2.4,2-4.4,4.4-4.4h98.8c2.4,0,4.4,2,4.4,4.4v26
			C125.7,49,123.8,50.9,121.3,50.9z"/>
		<g>
			<path class="st4" d="M29.2,52.1V29.3c0-0.6-0.5-1.2-1.2-1.2h0c-0.6,0-1.2,0.5-1.2,1.2v22.8C27.9,52.1,28.5,52.1,29.2,52.1z"/>
			<path class="st4" d="M50.4,52.1V29.3c0-0.6-0.5-1.2-1.2-1.2h0c-0.6,0-1.2,0.5-1.2,1.2v22.8C49.1,52.1,49.7,52.1,50.4,52.1z"/>
			<path class="st4" d="M71.7,52.1V29.3c0-0.6-0.5-1.2-1.2-1.2l0,0c-0.6,0-1.2,0.5-1.2,1.2v22.8C70.4,52.1,71,52.1,71.7,52.1z"/>
			<path class="st4" d="M114.2,52.1V29.3c0-0.6-0.5-1.2-1.2-1.2l0,0c-0.6,0-1.2,0.5-1.2,1.2v22.8C112.9,52.1,113.5,52.1,114.2,52.1z
				"/>
			<path class="st4" d="M92.9,52.1V29.3c0-0.6-0.5-1.2-1.2-1.2l0,0c-0.6,0-1.2,0.5-1.2,1.2v22.8C91.6,52.1,92.2,52.1,92.9,52.1z"/>
		</g>
		<path class="st3" d="M121.3,52.6H22.5c-2.4,0-4.4-2-4.4-4.4V40c0-0.4,0.3-0.7,0.7-0.7H125c0.4,0,0.7,0.3,0.7,0.7v8.2
			C125.7,50.6,123.8,52.6,121.3,52.6z"/>
	</g>
</g>
</svg>
